src/android-alarm-clock.svg

<?xml version="1.0" encoding="utf-8"?>
<!-- Generated by IcoMoon.io -->
<!DOCTYPE svg PUBLIC "-//W3C//DTD SVG 1.1//EN" "http://www.w3.org/Graphics/SVG/1.1/DTD/svg11.dtd">
<svg version="1.1" xmlns="http://www.w3.org/2000/svg" xmlns:xlink="http://www.w3.org/1999/xlink" width="512" height="512" viewBox="0 0 512 512">
<path fill="#000000" d="M470 124.837l-98.443-81.78-27.814 32.931 98.442 81.769 27.815-32.92zM167.192 74.919l-27.826-32.919-97.366 82.837 27.814 32.919 97.378-82.837zM266.701 172.628h-32.101v127.446l101.649 60.539 16.051-26.553-85.6-49.917v-111.515zM256 87.665c-107 0-192.601 86.021-192.601 191.166 0 105.149 85.601 191.169 192.601 191.169 105.936 0 192.601-86.020 192.601-191.169 0-105.144-86.665-191.166-192.601-191.166zM256 427.52c-82.393 0-149.8-66.906-149.8-148.688 0-81.777 67.407-148.684 149.8-148.684s149.8 66.906 149.8 148.684c0 82.839-67.406 148.688-149.8 148.688z"></path>
</svg>

<?xml version="1.0" encoding="utf-8"?>
<!-- Generator: Adobe Illustrator 16.2.1, SVG Export Plug-In . SVG Version: 6.00 Build 0)  -->
<!DOCTYPE svg PUBLIC "-//W3C//DTD SVG 1.1//EN" "http://www.w3.org/Graphics/SVG/1.1/DTD/svg11.dtd">
<svg version="1.1" id="Layer_1" xmlns="http://www.w3.org/2000/svg" xmlns:xlink="http://www.w3.org/1999/xlink" x="0px" y="0px"
	 width="512px" height="512px" viewBox="0 0 512 512" enable-background="new 0 0 512 512" xml:space="preserve">
<g id="Icon_2_">
	<g>
		<path d="M470,124.837l-98.443-81.78l-27.814,32.931l98.442,81.769L470,124.837z M167.192,74.919L139.366,42L42,124.837
			l27.814,32.919L167.192,74.919z M266.701,172.628h-32.101v127.446l101.649,60.539l16.051-26.553l-85.6-49.917V172.628z
			 M256,87.665c-107,0-192.601,86.021-192.601,191.166C63.399,383.98,149,470,256,470c105.936,0,192.601-86.02,192.601-191.169
			C448.601,173.687,361.936,87.665,256,87.665z M256,427.52c-82.393,0-149.8-66.906-149.8-148.688
			c0-81.777,67.407-148.684,149.8-148.684c82.394,0,149.8,66.906,149.8,148.684C405.8,361.671,338.394,427.52,256,427.52z"/>
	</g>
</g>
</svg>
